static/images/leaderboard/assets/2.svg

<svg width="40" height="40" viewBox="0 0 64 64" fill="none" xmlns="http://www.w3.org/2000/svg">
<g clip-path="url(#clip0_1815_11)">
<rect width="64" height="64" rx="32" fill="#FFAD00"/>
<circle cx="26" cy="31" r="3" fill="white"/>
<circle cx="21" cy="37" r="3" fill="white"/>
<circle cx="34" cy="31" r="3" fill="white"/>
<circle cx="30" cy="24" r="3" fill="white"/>
<circle cx="42" cy="31" r="3" fill="white"/>
<circle cx="38" cy="24" r="3" fill="white"/>
<circle cx="35" cy="16" r="3" fill="white"/>
<circle cx="43" cy="16" r="3" fill="white"/>
<circle cx="46" cy="24" r="3" fill="white"/>
<circle cx="29" cy="38" r="3" fill="white"/>
<circle cx="25" cy="45" r="3" fill="white"/>
<circle cx="37" cy="38" r="3" fill="white"/>
<circle cx="33" cy="45" r="3" fill="white"/>
<path d="M18.9559 25.9318C18.9559 25.9318 17.9603 25.5868 18.0425 26.2719C18.4333 29.5297 18.0227 32.6892 16.4882 36.0598C13.1373 43.4205 16.6722 49.7515 20.7166 52.0866C24.761 54.4216 27.837 51.778 25.2419 41.6994C23.888 36.4412 23.3953 30.2416 19.916 25.5835C19.1455 24.5519 18.9559 25.9318 18.9559 25.9318Z" fill="white"/>
<circle cx="19" cy="26" r="1" fill="white"/>
<path d="M44.5225 40.7265C44.5225 40.7265 45.319 41.4162 44.6846 41.6876C41.6679 42.978 39.137 44.9134 36.9852 47.9276C32.2861 54.51 25.0359 54.6142 20.9915 52.2791C16.947 49.9441 17.6985 45.9584 27.7244 43.1665C32.955 41.7099 38.5704 39.0368 44.3441 39.7209C45.6227 39.8724 44.5225 40.7265 44.5225 40.7265Z" fill="white"/>
<circle cx="1" cy="1" r="1" transform="matrix(-0.5 -0.866025 -0.866025 0.5 45.8074 41.0885)" fill="white"/>
</g>
<defs>
<clipPath id="clip0_1815_11">
<rect width="64" height="64" fill="white"/>
</clipPath>
</defs>
</svg>

<svg xmlns="http://www.w3.org/2000/svg" width="40" height="40" viewBox="0 0 64 64" fill="none" xmlns:v="https://vecta.io/nano"><g clip-path="url(#A)"><rect width="64" height="64" rx="32" fill="#ffad00"/><g fill="#fff"><circle cx="26" cy="31" r="3"/><circle cx="21" cy="37" r="3"/><circle cx="34" cy="31" r="3"/><circle cx="30" cy="24" r="3"/><circle cx="42" cy="31" r="3"/><circle cx="38" cy="24" r="3"/><circle cx="35" cy="16" r="3"/><circle cx="43" cy="16" r="3"/><circle cx="46" cy="24" r="3"/><circle cx="29" cy="38" r="3"/><circle cx="25" cy="45" r="3"/><circle cx="37" cy="38" r="3"/><circle cx="33" cy="45" r="3"/><path d="M18.956 25.932s-.996-.345-.913.34c.391 3.258-.02 6.417-1.554 9.788-3.351 7.361.184 13.692 4.228 16.027s7.12-.309 4.525-10.387c-1.354-5.258-1.847-11.458-5.326-16.116-.771-1.032-.96.348-.96.348z"/><circle cx="19" cy="26" r="1"/><path d="M44.523 40.727s.797.69.162.961c-3.017 1.29-5.548 3.226-7.699 6.24-4.699 6.582-11.949 6.687-15.994 4.352s-3.293-6.321 6.733-9.113c5.231-1.457 10.846-4.13 16.62-3.446 1.279.151.178 1.006.178 1.006z"/><circle cx="1" cy="1" r="1" transform="matrix(-.5 -.866025 -.866025 .5 45.8074 41.0885)"/></g></g><defs><clipPath id="A"><path fill="#fff" d="M0 0h64v64H0z"/></clipPath></defs></svg>
